icons/workplaces/other.svg

<svg enable-background="new 0 0 84 84" viewBox="0 0 84 84" xmlns="http://www.w3.org/2000/svg"><path d="m0 0h84v84h-84z" fill="#eee"/><g fill="#888"><path d="m68.2 16.9c0-.6-.5-1.1-1.1-1.1h-35.8v2.2h34.7v34.7h2.2z"/><path d="m23.3 26h34.7v34.7h2.2v-35.8c0-.6-.5-1.1-1.1-1.1h-35.8z"/><path d="m15.8 32.8v34.3c0 .6.5 1.1 1.1 1.1h34.3c.6 0 1.1-.5 1.1-1.1v-34.3c0-.6-.5-1.1-1.1-1.1h-34.3c-.6 0-1.1.5-1.1 1.1zm2.2 1.1h32.1v32.1h-32.1z"/></g></svg>

<?xml version="1.0" encoding="utf-8"?>
<!-- Generator: Adobe Illustrator 24.2.0, SVG Export Plug-In . SVG Version: 6.00 Build 0)  -->
<svg version="1.1" id="Layer_1" xmlns="http://www.w3.org/2000/svg" xmlns:xlink="http://www.w3.org/1999/xlink" x="0px" y="0px"
	 viewBox="0 0 84 84" style="enable-background:new 0 0 84 84;" xml:space="preserve">
<style type="text/css">
	.st0{fill:#DDDDDD;}
	.st1{fill:#888888;}
</style>
<rect class="st0" width="84" height="84"/>
<g>
	<path class="st1" d="M68.2,16.9c0-0.6-0.5-1.1-1.1-1.1H31.3V18H66v34.7h2.2L68.2,16.9z"/>
	<path class="st1" d="M23.3,26H58v34.7h2.2V24.9c0-0.6-0.5-1.1-1.1-1.1H23.3L23.3,26z"/>
	<path class="st1" d="M15.8,32.8v34.3c0,0.6,0.5,1.1,1.1,1.1h34.3c0.6,0,1.1-0.5,1.1-1.1l0-34.3c0-0.6-0.5-1.1-1.1-1.1H16.9
		C16.3,31.7,15.8,32.2,15.8,32.8L15.8,32.8z M18,33.9h32.1V66H18L18,33.9z"/>
</g>
</svg>
